papirus/48x48/apps/tor.svg

<?xml version="1.0" encoding="UTF-8" standalone="no"?>
<!-- Created with Inkscape (http://www.inkscape.org/) -->

<svg
   xmlns:dc="http://purl.org/dc/elements/1.1/"
   xmlns:cc="http://creativecommons.org/ns#"
   xmlns:rdf="http://www.w3.org/1999/02/22-rdf-syntax-ns#"
   xmlns:svg="http://www.w3.org/2000/svg"
   xmlns="http://www.w3.org/2000/svg"
   xmlns:xlink="http://www.w3.org/1999/xlink"
   xmlns:sodipodi="http://sodipodi.sourceforge.net/DTD/sodipodi-0.dtd"
   xmlns:inkscape="http://www.inkscape.org/namespaces/inkscape"
   id="svg2817"
   height="48"
   width="48"
   version="1.0"
   inkscape:version="0.91 r"
   sodipodi:docname="tor.svg">
  <metadata
     id="metadata57">
    <rdf:RDF>
      <cc:Work
         rdf:about="">
        <dc:format>image/svg+xml</dc:format>
        <dc:type
           rdf:resource="http://purl.org/dc/dcmitype/StillImage" />
        <dc:title />
      </cc:Work>
    </rdf:RDF>
  </metadata>
  <sodipodi:namedview
     pagecolor="#ffffff"
     bordercolor="#666666"
     borderopacity="1"
     objecttolerance="10"
     gridtolerance="10"
     guidetolerance="10"
     inkscape:pageopacity="0"
     inkscape:pageshadow="2"
     inkscape:window-width="1600"
     inkscape:window-height="840"
     id="namedview55"
     showgrid="false"
     inkscape:zoom="10.66"
     inkscape:cx="22.312473"
     inkscape:cy="30.033528"
     inkscape:window-x="-4"
     inkscape:window-y="34"
     inkscape:window-maximized="1"
     inkscape:current-layer="svg2817" />
  <defs
     id="defs2819">
    <linearGradient
       id="linearGradient2815"
       y2="17.5"
       spreadMethod="reflect"
       gradientUnits="userSpaceOnUse"
       x2="3.0052"
       y1="17.5"
       x1="44.995">
      <stop
         id="stop3277"
         style="stop-color:#fff;stop-opacity:0"
         offset="0" />
      <stop
         id="stop3283"
         style="stop-color:#fff"
         offset=".245" />
      <stop
         id="stop3285"
         style="stop-color:#fff"
         offset=".77350" />
      <stop
         id="stop3279"
         style="stop-color:#fff;stop-opacity:0"
         offset="1" />
    </linearGradient>
    <linearGradient
       id="linearGradient2813"
       y2="8"
       gradientUnits="userSpaceOnUse"
       x2="26"
       y1="22"
       x1="26">
      <stop
         id="stop3829"
         style="stop-color:#fff"
         offset="0" />
      <stop
         id="stop4295"
         style="stop-color:#fff"
         offset=".30213" />
      <stop
         id="stop4293"
         style="stop-color:#fff;stop-opacity:.69020"
         offset=".34361" />
      <stop
         id="stop3832"
         style="stop-color:#fff;stop-opacity:0"
         offset="1" />
    </linearGradient>
    <linearGradient
       id="linearGradient2811"
       y2="45.934"
       gradientUnits="userSpaceOnUse"
       x2="43.007"
       gradientTransform="matrix(1.2822 0 0 1.1747 -6.0702 -5.3032)"
       y1="30.555"
       x1="23.452">
      <stop
         id="stop4561"
         style="stop-color:#fff;stop-opacity:0"
         offset="0" />
      <stop
         id="stop4563"
         style="stop-color:#fff;stop-opacity:0"
         offset="1" />
    </linearGradient>
    <linearGradient
       id="linearGradient2809"
       y2="45.042"
       gradientUnits="userSpaceOnUse"
       x2="15.464"
       y1="7.9757"
       x1="15.464">
      <stop
         id="stop3297"
         style="stop-color:#c9af8b"
         offset="0" />
      <stop
         id="stop3299"
         style="stop-color:#ad8757"
         offset=".23942" />
      <stop
         id="stop3301"
         style="stop-color:#c2a57f"
         offset=".27582" />
      <stop
         id="stop3303"
         style="stop-color:#9d7d53"
         offset="1" />
    </linearGradient>
    <linearGradient
       id="linearGradient2807"
       y2="37.277"
       gradientUnits="userSpaceOnUse"
       x2="24.997"
       gradientTransform="matrix(1.2822 0 0 1.5573 -6.0702 -15.291)"
       y1="15.378"
       x1="24.823">
      <stop
         id="stop3201"
         style="stop-color:#dac197"
         offset="0" />
      <stop
         id="stop3203"
         style="stop-color:#c1a581"
         offset=".23942" />
      <stop
         id="stop3205"
         style="stop-color:#dbc298"
         offset=".27582" />
      <stop
         id="stop3207"
         style="stop-color:#a68b60"
         offset="1" />
    </linearGradient>
    <radialGradient
       id="radialGradient2805"
       xlink:href="#linearGradient3681"
       gradientUnits="userSpaceOnUse"
       cy="41.5"
       cx="5"
       gradientTransform="matrix(.59382 0 0 1.5367 41.141 -103.94)"
       r="5" />
    <linearGradient
       id="linearGradient2803"
       y2="35"
       gradientUnits="userSpaceOnUse"
       x2="17.554"
       gradientTransform="matrix(1.757 0 0 1.397 -17.394 -16.412)"
       y1="46"
       x1="17.554">
      <stop
         id="stop3705"
         style="stop-opacity:0"
         offset="0" />
      <stop
         id="stop3711"
         offset=".5" />
      <stop
         id="stop3707"
         style="stop-opacity:0"
         offset="1" />
    </linearGradient>
    <linearGradient
       id="linearGradient3681">
      <stop
         id="stop3683"
         offset="0" />
      <stop
         id="stop3685"
         style="stop-opacity:0"
         offset="1" />
    </linearGradient>
    <radialGradient
       id="radialGradient2801"
       xlink:href="#linearGradient3681"
       gradientUnits="userSpaceOnUse"
       cy="41.5"
       cx="5"
       gradientTransform="matrix(.59382 0 0 1.5367 -6.6595 -103.94)"
       r="5" />
    <linearGradient
       id="linearGradient2789"
       y2="25.411"
       gradientUnits="userSpaceOnUse"
       x2="57.726"
       gradientTransform="matrix(0 .71282 -.67402 0 50.746 15.046)"
       y1="25.411"
       x1="13.472">
      <stop
         id="stop4224"
         style="stop-color:#fff"
         offset="0" />
      <stop
         id="stop4226"
         style="stop-color:#fff;stop-opacity:0"
         offset="1" />
    </linearGradient>
    <linearGradient
       id="linearGradient2787"
       y2="20.71"
       gradientUnits="userSpaceOnUse"
       x2=".81572"
       gradientTransform="matrix(0 -.61460 -.58384 0 46.949 46.633)"
       y1="20.71"
       x1="28.315">
      <stop
         id="stop2266"
         style="stop-color:#d7e866"
         offset="0" />
      <stop
         id="stop2268"
         style="stop-color:#8cab2a"
         offset="1" />
    </linearGradient>
    <radialGradient
       r="5"
       gradientTransform="matrix(.59382 0 0 1.5367 41.141 -103.94)"
       cx="5"
       cy="41.5"
       gradientUnits="userSpaceOnUse"
       xlink:href="#linearGradient3681"
       id="radialGradient2805-9" />
    <radialGradient
       r="5"
       gradientTransform="matrix(.59382 0 0 1.5367 -6.6595 -103.94)"
       cx="5"
       cy="41.5"
       gradientUnits="userSpaceOnUse"
       xlink:href="#linearGradient3681"
       id="radialGradient2801-3" />
  </defs>
  <path
     style="opacity:0.1;fill:#ffffff;fill-opacity:1;stroke:none"
     d="m 75.530253,5.4393019 c -11.08,0 -20,8.9200001 -20,20.0000001 0,0.16772 -0.004,0.33329 0,0.5 0.26444,-10.84635 9.08772,-19.5000001 20,-19.5000001 10.91228,0 19.73556,8.6536501 20,19.5000001 0.004,-0.16671 0,-0.33228 0,-0.5 0,-11.08 -8.92,-20.0000001 -20,-20.0000001 z"
     id="rect3436"
     inkscape:connector-curvature="0" />
  <g
     id="g4197"
     transform="matrix(1.351216,0,0,1.3050632,-49.31748,4.6083806)" />
  <g
     id="g4201"
     transform="matrix(1.1860054,0,0,1.1443836,-39.007906,5.6969499)" />
  <path
     style="fill:#abcd03;fill-rule:evenodd;stroke:none"
     id="path2554"
     d="M 24.13288,7.5859195 24.0695,12.566974 C 25.635525,9.5589082 27.229428,5.995708 30.085364,4 27.997262,6.3529338 26.986822,10.005767 25.819894,12.358701 27.785233,9.6779835 31.021525,6.1671621 34,5.1842473 30.038744,8.6095116 26.298968,14.306707 23.903732,18 L 22,17.195916 c 0.337488,-2.948746 0.443867,-6.690911 2.132875,-9.6099965 z"
     inkscape:connector-curvature="0"
     sodipodi:nodetypes="cccccccc" />
  <path
     style="fill:#ffffff;fill-rule:evenodd;stroke:none;fill-opacity:1;opacity:0.2"
     d="M 30.085938 4 C 27.23787 5.9902094 25.645857 9.5382031 24.083984 12.541016 L 24.070312 13.566406 C 25.303535 11.197597 26.5631 8.4973093 28.433594 6.4765625 C 28.90855 5.5805447 29.442381 4.7251779 30.085938 4 z M 34 5.1835938 C 31.478729 6.0156285 28.779862 8.6562508 26.816406 11.074219 C 26.479736 11.898142 26.153744 12.687061 25.820312 13.359375 C 27.324815 11.307238 29.574526 8.778387 31.882812 7.2597656 C 32.578635 6.5162779 33.283006 5.8035724 34 5.1835938 z M 24.132812 7.5859375 C 22.443805 10.505023 22.337488 14.246567 22 17.195312 L 22.097656 17.236328 C 22.374167 14.468347 22.616503 11.226435 24.119141 8.6113281 L 24.132812 7.5859375 z "
     id="path4209" />
  <path
     style="fill:#7d529d;fill-opacity:1;fill-rule:evenodd;stroke:none"
     d="m 20.763673,14 -0.382531,0.297504 c 1.915525,3.481899 0.913436,5.327185 -0.02965,5.98203 -1.915525,1.339327 -4.714986,3.006248 -6.099741,4.46456 -2.681692,2.76778 -3.44731,5.416052 -3.211483,8.898169 0.265171,4.464493 3.477065,8.184618 7.779123,9.642928 C 20.705139,43.9104 22.44346,44 24.38833,44 c 3.123572,0 6.334954,-0.83402 8.662798,-2.798336 2.475211,-2.083298 3.94887,-5.20798 3.94887,-8.451914 0,-3.273787 -1.355317,-6.368433 -3.742281,-8.570716 -1.267166,-1.160632 -2.858191,-2.113273 -4.508334,-3.03594 -0.736607,-0.416878 -3.006001,-2.202612 -2.239834,-4.762063 l -2.59271,-0.357405 0.212516,0.106822 L 23.564949,15.893843 20.763675,14 Z m 3.755131,2.32812 9.91e-4,0 c 0.01325,0.462794 0.01134,0.912343 0.0079,1.347753 -0.0095,-0.550764 -0.0089,-1.047225 -0.0088,-1.347753 z"
     id="path2534"
     inkscape:connector-curvature="0" />
  <path
     style="fill:#ffffff;fill-opacity:1;fill-rule:evenodd;stroke:none;opacity:0.2"
     d="M 20.763672 14 L 20.380859 14.296875 C 20.522902 14.555069 20.617346 14.786966 20.728516 15.027344 L 20.763672 15 L 23.564453 16.894531 L 24.128906 17.130859 L 23.916016 17.023438 L 24.523438 17.107422 L 26.357422 17.359375 C 26.362555 17.047313 26.407711 16.721784 26.509766 16.380859 L 23.916016 16.023438 L 24.128906 16.130859 L 23.564453 15.894531 L 20.763672 14 z M 24.519531 17.328125 C 24.532781 17.790919 24.530784 18.240371 24.527344 18.675781 C 24.517844 18.125017 24.519431 17.628653 24.519531 17.328125 z M 26.394531 17.902344 C 26.053945 20.180985 28.064621 21.754692 28.75 22.142578 C 30.400143 23.065245 31.990647 24.019056 33.257812 25.179688 C 35.516624 27.263733 36.835822 30.148689 36.972656 33.226562 C 36.979756 33.067406 37 32.909846 37 32.75 C 37 29.476213 35.644776 26.38197 33.257812 24.179688 C 31.990647 23.019056 30.400143 22.065245 28.75 21.142578 C 28.170256 20.814476 26.646015 19.636152 26.394531 17.902344 z M 21.433594 18.363281 C 21.301624 19.332994 20.820665 19.953569 20.351562 20.279297 C 18.436038 21.618624 15.636708 23.285829 14.251953 24.744141 C 11.738906 27.337862 10.91996 29.835518 11.019531 33.003906 C 11.116482 30.297488 12.008475 28.059639 14.251953 25.744141 C 15.636708 24.285829 18.436038 22.618624 20.351562 21.279297 C 20.964089 20.853981 21.586825 19.91519 21.433594 18.363281 z "
     id="path4199" />
  <path
     style="opacity:0.3;fill:#000000;fill-opacity:1;fill-rule:evenodd;stroke:none"
     d="m 20.728516,14.027344 -0.347657,0.269531 c 0.671408,1.220435 0.970041,2.228894 1.052735,3.066406 0.113669,-0.83524 -0.06277,-1.94711 -0.705078,-3.335937 z m 3.791015,2.300781 c -10e-5,0.300528 -0.0017,0.796892 0.0078,1.347656 0.0034,-0.43541 0.0054,-0.884862 -0.0078,-1.347656 z m 1.837891,0.03125 c -0.0031,0.186839 0.01163,0.367282 0.03711,0.542969 0.02546,-0.170314 0.06195,-0.343486 0.115235,-0.521485 l -0.152344,-0.02148 z M 11.019531,32.003906 c -0.01894,0.52864 -0.01705,1.069661 0.02149,1.638672 0.265171,4.464493 3.477239,8.184268 7.779296,9.642578 C 20.70606,43.910365 22.443802,44 24.388672,44 27.512244,44 30.722937,43.165488 33.050781,41.201172 35.525992,39.117874 37,35.993934 37,32.75 c 0,-0.175765 -0.01958,-0.348816 -0.02734,-0.523438 -0.136984,3.070787 -1.568631,5.993967 -3.921875,7.97461 C 30.722937,42.165488 27.512244,43 24.388672,43 c -1.94487,0 -3.682612,-0.08964 -5.56836,-0.714844 -4.302057,-1.45831 -7.514125,-5.178085 -7.779296,-9.642578 -0.01483,-0.218981 -0.0148,-0.426049 -0.02149,-0.638672 z"
     id="path4214"
     inkscape:connector-curvature="0" />
</svg>

<?xml version="1.0" encoding="UTF-8" standalone="no"?>
<!-- Created with Inkscape (http://www.inkscape.org/) -->
<svg id="svg2817" xmlns:rdf="http://www.w3.org/1999/02/22-rdf-syntax-ns#" xmlns="http://www.w3.org/2000/svg" height="48" width="48" version="1.0" xmlns:cc="http://creativecommons.org/ns#" xmlns:xlink="http://www.w3.org/1999/xlink" xmlns:dc="http://purl.org/dc/elements/1.1/">
 <metadata id="metadata57">
  <rdf:RDF>
   <cc:Work rdf:about="">
    <dc:format>image/svg+xml</dc:format>
    <dc:type rdf:resource="http://purl.org/dc/dcmitype/StillImage"/>
    <dc:title/>
   </cc:Work>
  </rdf:RDF>
 </metadata>
 <path id="rect3436" opacity=".1" d="m75.53 5.4393c-11.08 0-20 8.92-20 20 0 0.16772-0.004 0.33329 0 0.5 0.26444-10.846 9.0877-19.5 20-19.5s19.736 8.6537 20 19.5c0.004-0.16671 0-0.33228 0-0.5 0-11.08-8.92-20-20-20z" fill="#fff"/>
 <path id="path2554" d="m24.133 7.5859-0.063 4.9811c1.566-3.0081 3.159-6.5713 6.015-8.567-2.088 2.3529-3.098 6.006-4.265 8.359 1.965-2.681 5.202-6.1918 8.18-7.1748-3.961 3.4253-7.701 9.1228-10.096 12.816l-1.904-0.804c0.33749-2.9487 0.44387-6.6909 2.1329-9.61z" fill-rule="evenodd" fill="#abcd03"/>
 <path id="path4209" opacity=".2" d="m30.086 4c-2.848 1.9902-4.44 5.5382-6.002 8.541l-0.014 1.025c1.234-2.368 2.493-5.0687 4.364-7.0894 0.475-0.8961 1.008-1.7514 1.652-2.4766zm3.914 1.1836c-2.521 0.832-5.22 3.4727-7.184 5.8904-0.336 0.824-0.662 1.613-0.996 2.285 1.505-2.052 3.755-4.5806 6.063-6.0992 0.696-0.7435 1.4-1.4562 2.117-2.0762zm-9.867 2.4023c-1.689 2.9191-1.796 6.6611-2.133 9.6091l0.098 0.041c0.276-2.768 0.519-6.01 2.021-8.6247l0.014-1.0254z" fill-rule="evenodd" fill="#fff"/>
 <path id="path2534" d="m20.764 14-0.38253 0.2975c1.9155 3.4819 0.91344 5.3272-0.02965 5.982-1.9155 1.3393-4.715 3.0062-6.0997 4.4646-2.6817 2.7678-3.4473 5.4161-3.2115 8.8982 0.26517 4.4645 3.4771 8.1846 7.7791 9.6429 1.886 0.624 3.624 0.714 5.569 0.714 3.1236 0 6.335-0.83402 8.6628-2.7983 2.4752-2.0833 3.9489-5.208 3.9489-8.4519 0-3.2738-1.3553-6.3684-3.7423-8.5707-1.2672-1.1606-2.8582-2.1133-4.5083-3.0359-0.73661-0.41688-3.006-2.2026-2.2398-4.7621l-2.5927-0.3574 0.21252 0.10682-0.565-0.236-2.801-1.894zm3.7551 2.3281h0.000991c0.01325 0.46279 0.01134 0.91234 0.0079 1.3478-0.0095-0.55076-0.0089-1.0472-0.0088-1.3478z" fill-rule="evenodd" fill="#7d529d"/>
 <path id="path4199" opacity=".2" d="m20.764 14l-0.383 0.297c0.142 0.258 0.236 0.49 0.348 0.73l0.035-0.027 2.8 1.895 0.565 0.236-0.213-0.108 0.607 0.084 1.834 0.252c0.006-0.312 0.051-0.637 0.153-0.978l-2.594-0.358 0.213 0.108-0.565-0.236-2.8-1.895zm3.756 3.328c0.013 0.463 0.011 0.912 0.007 1.348-0.009-0.551-0.008-1.047-0.007-1.348zm1.875 0.574c-0.341 2.279 1.67 3.853 2.355 4.241 1.65 0.922 3.241 1.876 4.508 3.037 2.259 2.084 3.578 4.969 3.715 8.047 0.007-0.16 0.027-0.317 0.027-0.477 0-3.274-1.355-6.368-3.742-8.57-1.267-1.161-2.858-2.115-4.508-3.037-0.58-0.329-2.104-1.507-2.355-3.241zm-4.961 0.461c-0.132 0.97-0.613 1.591-1.082 1.916-1.916 1.34-4.715 3.007-6.1 4.465-2.513 2.594-3.332 5.092-3.232 8.26 0.096-2.707 0.988-4.944 3.232-7.26 1.385-1.458 4.184-3.125 6.1-4.465 0.612-0.425 1.235-1.364 1.082-2.916z" fill-rule="evenodd" fill="#fff"/>
 <path id="path4214" opacity=".3" d="m20.729 14.027-0.34766 0.26953c0.67141 1.2204 0.97004 2.2289 1.0527 3.0664 0.11367-0.83524-0.06277-1.9471-0.70508-3.3359zm3.791 2.3008c-0.0001 0.30053-0.0017 0.79689 0.0078 1.3477 0.0034-0.43541 0.0054-0.88486-0.0078-1.3477zm1.8379 0.03125c-0.0031 0.18684 0.01163 0.36728 0.03711 0.54297 0.02546-0.17031 0.06195-0.34349 0.11524-0.52148l-0.15234-0.02148zm-15.338 15.645c-0.01894 0.52864-0.01705 1.0697 0.02149 1.6387 0.26517 4.4645 3.4772 8.1843 7.7793 9.6426 1.885 0.625 3.623 0.715 5.568 0.715 3.123 0 6.334-0.835 8.662-2.799 2.475-2.083 3.949-5.207 3.949-8.451 0-0.17576-0.01958-0.34882-0.02734-0.52344-0.13698 3.0708-1.5686 5.994-3.9219 7.9746-2.328 1.964-5.539 2.799-8.662 2.799-1.9449 0-3.6826-0.08964-5.5684-0.71484-4.3021-1.4583-7.5141-5.1781-7.7793-9.6426-0.01483-0.21898-0.0148-0.42605-0.02149-0.63867z" fill-rule="evenodd"/>
</svg>
